svgs/sharp-solid/gauge-circle-plus.svg

<svg xmlns="http://www.w3.org/2000/svg" viewBox="0 0 640 512"><!--! Font Awesome Pro 6.6.0 by @fontawesome - https://fontawesome.com License - https://fontawesome.com/license (Commercial License) Copyright 2024 Fonticons, Inc. --><path d="M496 192c2.7 0 5.3 .1 8 .2C475.6 81.7 375.4 0 256 0C114.6 0 0 114.6 0 256S114.6 512 256 512c39.5 0 77-9 110.4-25C337.6 455.7 320 413.9 320 368c0-97.2 78.8-176 176-176zM320 352c0 35.3-28.7 64-64 64s-64-28.7-64-64c0-26.9 16.5-49.9 40-59.3L232 88l0-24 48 0 0 24 0 204.7c23.5 9.5 40 32.5 40 59.3zM144 112a32 32 0 1 1 0 64 32 32 0 1 1 0-64zM64 256a32 32 0 1 1 64 0 32 32 0 1 1 -64 0zM336 144a32 32 0 1 1 64 0 32 32 0 1 1 -64 0zM496 512a144 144 0 1 0 0-288 144 144 0 1 0 0 288zm16-208l0 48 48 0 16 0 0 32-16 0-48 0 0 48 0 16-32 0 0-16 0-48-48 0-16 0 0-32 16 0 48 0 0-48 0-16 32 0 0 16z"/></svg>

<svg xmlns="http://www.w3.org/2000/svg" viewBox="0 0 640 512"><!--! Font Awesome Pro 6.4.2 by @fontawesome - https://fontawesome.com License - https://fontawesome.com/license (Commercial License) Copyright 2023 Fonticons, Inc. --><path d="M496 192c2.7 0 5.3 .1 8 .2C475.6 81.7 375.4 0 256 0C114.6 0 0 114.6 0 256S114.6 512 256 512c39.5 0 77-9 110.4-25C337.6 455.7 320 413.9 320 368c0-97.2 78.8-176 176-176zM320 352c0 35.3-28.7 64-64 64s-64-28.7-64-64c0-26.9 16.5-49.9 40-59.3V88 64h48V88 292.7c23.5 9.5 40 32.5 40 59.3zM144 112a32 32 0 1 1 0 64 32 32 0 1 1 0-64zM64 256a32 32 0 1 1 64 0 32 32 0 1 1 -64 0zM336 144a32 32 0 1 1 64 0 32 32 0 1 1 -64 0zM496 512a144 144 0 1 0 0-288 144 144 0 1 0 0 288zm16-208v48h48 16v32H560 512v48 16H480V432 384H432 416V352h16 48V304 288h32v16z"/></svg>
